dist/files/navbar_dashboard.svg

<svg width="48" height="44" viewBox="0 0 48 44" fill="none" xmlns="http://www.w3.org/2000/svg">
<mask id="mask0_5180_11522" style="mask-type:luminance" maskUnits="userSpaceOnUse" x="0" y="0" width="48" height="44">
<path d="M0 0H47.8284V44H0V0Z" fill="white"/>
</mask>
<g mask="url(#mask0_5180_11522)">
<path d="M2.26353 1.89681H45.5572C45.7695 1.89681 45.9392 2.06178 45.9392 2.273V31.3937C45.9392 31.6008 45.7695 31.7651 45.5572 31.7651H2.26353C2.05547 31.7651 1.88569 31.6008 1.88569 31.3937V2.273C1.88569 2.06178 2.05547 1.89681 2.26353 1.89681ZM0.947021 0.0234375C0.425151 0.0234375 0 0.441045 0 0.960122V32.7101C0 33.2291 0.425151 33.6474 0.942846 33.6474C0.947021 33.6474 0.947021 33.6474 0.947021 33.6474H19.129C19.6516 33.6474 20.076 34.0692 20.076 34.5883V36.2932C20.076 39.4028 17.5369 41.9264 14.4071 41.9264H13.9618V43.8509H33.8673V41.9264H33.4213C30.2922 41.9264 27.7531 39.4028 27.7531 36.2932V34.5883C27.7531 34.0692 28.1775 33.6474 28.7001 33.6474H46.8863C47.404 33.6474 47.8284 33.2291 47.8284 32.7101V0.960122C47.8284 0.441045 47.404 0.0234375 46.8863 0.0234375H0.947021Z" fill="#000066"/>
</g>
<path d="M8.13573 24.918C7.83444 24.9221 7.59646 25.1672 7.60064 25.4667C7.60551 25.758 7.84279 25.9941 8.13573 25.9982H18.0548C18.3567 25.9941 18.594 25.749 18.5898 25.4536C18.5857 25.1589 18.3477 24.9221 18.0548 24.918H8.13573Z" fill="#000066"/>
<path d="M8.13573 22.6367C7.83444 22.6409 7.59646 22.8852 7.60064 23.1848C7.60551 23.4761 7.84279 23.7128 8.13573 23.717H18.0548C18.3567 23.7128 18.594 23.4678 18.5898 23.1724C18.5857 22.8769 18.3477 22.6409 18.0548 22.6367H8.13573Z" fill="#000066"/>
<path d="M13.6392 6.14844V12.6804L19.3289 15.9426C20.9676 12.5202 19.5113 8.42699 16.0676 6.79797C15.3036 6.4349 14.4797 6.21608 13.6392 6.14844Z" fill="#000066"/>
<path d="M12.5519 6.14844V13.3009L18.7851 16.8792C16.6238 20.002 12.3264 20.7909 9.18475 18.6429C6.04239 16.4955 5.24428 12.2248 7.40552 9.10206C8.58564 7.39712 10.4755 6.31272 12.5519 6.14844Z" fill="#000066"/>
<path d="M33.7527 14.6692L31.3834 10.9383C31.0655 10.4323 30.394 10.2846 29.8846 10.6008C29.7872 10.6601 29.7023 10.7361 29.63 10.8244L26.5725 14.4835L25.7319 13.7911L28.7936 10.1328C29.5618 9.21679 30.9332 9.09047 31.8552 9.8539C32.0292 9.99747 32.1823 10.1707 32.3054 10.3606L34.6747 14.0907C34.9969 14.5974 35.6635 14.7492 36.1735 14.4283C36.2876 14.3565 36.3858 14.2681 36.4623 14.1625L39.9776 9.49565L39.4557 9.10704L41.443 8.44922L41.3665 10.5338L40.8481 10.1452L37.3328 14.8079C36.6147 15.766 35.2516 15.9599 34.292 15.2469C34.0798 15.0868 33.8975 14.8928 33.7569 14.6692H33.7527Z" fill="#000066"/>
<path d="M38.9502 14.3711H41.0217V24.1693H38.9502V14.3711Z" fill="#000066"/>
<path d="M34.1475 24.1683V18.5938H36.2238V24.1683H34.1475Z" fill="#000066"/>
<path d="M29.3452 24.168V13.1328H31.4216V24.168H29.3452Z" fill="#000066"/>
<path d="M26.6195 24.1671H24.5474V16.2422H26.6195V24.1671Z" fill="#000066"/>
</svg>

<svg xmlns="http://www.w3.org/2000/svg" width="48" height="44" fill="none"><mask id="a" width="48" height="44" x="0" y="0" maskUnits="userSpaceOnUse" style="mask-type:luminance"><path fill="#fff" d="M0 0h47.828v44H0V0Z"/></mask><g mask="url(#a)"><path fill="#006" d="M2.264 1.897h43.293c.212 0 .382.165.382.376v29.12c0 .208-.17.372-.382.372H2.264a.374.374 0 0 1-.378-.371V2.273c0-.211.17-.376.378-.376ZM.947.023A.942.942 0 0 0 0 .96v31.75c0 .52.425.937.943.937h18.186c.523 0 .947.422.947.941v1.705c0 3.11-2.54 5.633-5.669 5.633h-.445v1.925h19.905v-1.925h-.446c-3.129 0-5.668-2.523-5.668-5.633v-1.705c0-.519.424-.94.947-.94h18.186a.94.94 0 0 0 .942-.938V.96a.94.94 0 0 0-.942-.937H.947Z"/></g><path fill="#006" d="M8.136 24.918a.54.54 0 0 0 0 1.08h9.919a.539.539 0 0 0 0-1.08h-9.92ZM8.136 22.637a.54.54 0 0 0 0 1.08h9.919a.54.54 0 0 0 0-1.08h-9.92ZM13.64 6.148v6.532l5.689 3.263c1.639-3.423.182-7.516-3.261-9.145a6.96 6.96 0 0 0-2.429-.65Z"/><path fill="#006" d="M12.552 6.148v7.153l6.233 3.578c-2.161 3.123-6.459 3.912-9.6 1.764-3.143-2.148-3.94-6.418-1.78-9.54a6.919 6.919 0 0 1 5.147-2.955ZM33.753 14.67l-2.37-3.732a1.09 1.09 0 0 0-1.753-.114l-3.057 3.66-.841-.693 3.062-3.658a2.184 2.184 0 0 1 3.511.228l2.37 3.73a1.086 1.086 0 0 0 1.787.072l3.516-4.667-.522-.389 1.987-.658-.076 2.085-.519-.389-3.515 4.663a2.18 2.18 0 0 1-3.041.439 2.178 2.178 0 0 1-.535-.578h-.004ZM38.95 14.371h2.072v9.798H38.95v-9.798ZM34.148 24.168v-5.574h2.076v5.574h-2.076Z"/><path fill="#006" d="M29.345 24.168V13.133h2.077v11.035h-2.077ZM26.62 24.167h-2.073v-7.925h2.072v7.925Z"/></svg>
